dist/img/icons/conditions__icons/user-list.svg

<svg width="21" height="18" viewBox="0 0 21 18" fill="none" xmlns="http://www.w3.org/2000/svg">
<path fill-rule="evenodd" clip-rule="evenodd" d="M7 8C9.20914 8 11 6.20914 11 4C11 1.79086 9.20914 0 7 0C4.79086 0 3 1.79086 3 4C3 6.20914 4.79086 8 7 8ZM7 6C8.10457 6 9 5.10457 9 4C9 2.89543 8.10457 2 7 2C5.89543 2 5 2.89543 5 4C5 5.10457 5.89543 6 7 6Z" fill="white"/>
<path d="M11 11C11.5523 11 12 11.4477 12 12V18H14V12C14 10.3431 12.6569 9 11 9H3C1.34315 9 0 10.3431 0 12V18H2V12C2 11.4477 2.44772 11 3 11H11Z" fill="white"/>
<path d="M21 8H15V10H21V8Z" fill="white"/>
<path d="M16 12H21V14H16V12Z" fill="white"/>
<path d="M21 4H14V6H21V4Z" fill="white"/>
</svg>

<svg width="21" height="18" fill="none" xmlns="http://www.w3.org/2000/svg"><path fill-rule="evenodd" clip-rule="evenodd" d="M7 8a4 4 0 100-8 4 4 0 000 8zm0-2a2 2 0 100-4 2 2 0 000 4z" fill="#fff"/><path d="M11 11a1 1 0 011 1v6h2v-6a3 3 0 00-3-3H3a3 3 0 00-3 3v6h2v-6a1 1 0 011-1h8zm10-3h-6v2h6V8zm-5 4h5v2h-5v-2zm5-8h-7v2h7V4z" fill="#fff"/></svg>
